X: 2215
T: Autumn Leaves
R: hornpipe
M: 4/4
K: Dmajor
|:dB|AFEG FDEF|D2 FA dfec|dcBA FABc|dBAF E2 dB|
AFEG FDEF|D2 FA dfec|dcBA FDGF|E2 D2 D2:|
|:(3ABc|dfef dBAB|dfef d2 Bc|dcBA FABc|dBAF E2 dB|
AFEG FDEF|D2 FA dfec|dcBA FABc|d2 f2 d2:|

